hero/outline/eye.svg

<svg width="24" height="24" viewBox="0 0 24 24" fill="none" xmlns="http://www.w3.org/2000/svg">
<path d="M2.03555 12.3224C1.96647 12.1151 1.9664 11.8907 2.03536 11.6834C3.42372 7.50972 7.36079 4.5 12.0008 4.5C16.6387 4.5 20.5742 7.50692 21.9643 11.6776C22.0334 11.8849 22.0335 12.1093 21.9645 12.3166C20.5761 16.4903 16.6391 19.5 11.9991 19.5C7.36119 19.5 3.42564 16.4931 2.03555 12.3224Z" stroke="#0F172A" stroke-width="1.5" stroke-linecap="round" stroke-linejoin="round"/>
<path d="M15 12C15 13.6569 13.6569 15 12 15C10.3431 15 9 13.6569 9 12C9 10.3431 10.3431 9 12 9C13.6569 9 15 10.3431 15 12Z" stroke="#0F172A" stroke-width="1.5" stroke-linecap="round" stroke-linejoin="round"/>
</svg>

<svg viewBox="0 0 24 24" xmlns="http://www.w3.org/2000/svg"><g stroke-linecap="round" stroke-width="1.5" stroke="#000" fill="none" stroke-linejoin="round"><path d="M2.03 12.32l0 0c-.07-.21-.07-.44-.001-.64 1.38-4.18 5.324-7.19 9.96-7.19 4.63 0 8.57 3 9.96 7.17 .07.2.07.43 0 .63 -1.39 4.17-5.323 7.183-9.97 7.183 -4.64 0-8.573-3.01-9.97-7.18Z"/><path d="M15 12v0c0 1.65-1.35 3-3 3 -1.66 0-3-1.35-3-3v0c0-1.66 1.34-3 3-3 1.65 0 3 1.34 3 3Z"/></g></svg>
